!!!!SEGMENT: pl-kk--kk-i-389--006-006_anonim--missa-no-6-benedictus.krn
!!!cenid: 17xx:2496
!!!COM: Anonim
!!!COM-rismID: pe30004985
!!!CDT:
!!!CNT:
!!!OPR: [Missa] No. 6.
!!!OTL: Benedictus
!!!OMV: 006
!!!PDT:
!!!AGN: Sacred; Mass
!!!YEC: Copyright 2022 Narodowy Instytut Fryderyka Chopina (https://polishscores.org)
!!!YEM: License CC-BY-4.0 (https://creativecommons.org/licenses/by/4.0)
!!!SMS-siglum: PL-Kk
!!!SMS-shelfmark: Kk.I.389
!!!SMS-variant:
!!!SMS-altvar:
!!!SMS-shelfwork: 006-006 M
!!!NIFC-rismSourceID: 1001146182
!!!NIFC-rismChildID: 1001147228
!!!NIFC-islandoraID: pl-kk:6976
!!!URL-pdf-islandora: https://repozytorium.nifc.pl/islandora/object/pl-kk%3A6976/datastream/PDF/view
!!!URL-scan: https://polish.musicsources.pl/pl/lokalizacje/galeria/rekopisy/5999/1 @EN{Scan on Polish Music Sources Website} @PL{Skany w portalu Dziedzictwo Muzyki Polskiej w otwartym dostępie}
!!!IIIF:
!!!ONB-nifc: UWAGA: S – skan 10-12, A – 29-31 , T – 48-49 , B – 67-69 . Części Mszy: Rorate, Kyrie, Gloria, Graduale, Sanctus, Benedictus, Agnus, Dona.
!!!AIN: 1 alto 1 bass 1 soprn 1 tenor
!!!key: d
**kern	**text	**kern	**text	**kern	**text	**kern	**text
*part4	*part4	*part3	*part3	*part2	*part2	*part1	*part1
*staff4	*staff4	*staff3	*staff3	*staff2	*staff2	*staff1	*staff1
*I"Basso.	*	*I"Tenore.	*	*I"Alto.	*	*I"Soprano.	*
*I'B	*	*I'T	*	*I'A	*	*I'S	*
*ICvox	*	*ICvox	*	*ICvox	*	*ICvox	*
*Ibass	*	*Itenor	*	*Ialto	*	*Isoprn	*
*clefF4	*	*clefC4	*	*clefC3	*	*clefC1	*
*k[b-]	*	*k[b-]	*	*k[b-]	*	*k[b-]	*
*d:	*	*d:	*	*d:	*	*d:	*
*M3/2	*	*M3/2	*	*M3/2	*	*M3/2	*
=1	=1	=1	=1	=1	=1	=1	=1
*	*	*2\right	*	*	*	*	*
*	*	*all\right	*	*	*	*	*
!LO:TX:a:t=P:problem:wszystkie caudy z prawej strony	!	!LO:TX:a:t=P:problem:wszystkie caudy z prawej strony	!	!LO:TX:a:t=P:problem:wszystkie caudy z prawej strony	!	!LO:TX:a:t=P:problem:wszystkie caudy z prawej strony	!
!LO:TX:a:t=Benedictus in F. Tacet,	!	!LO:TX:t=P:problem:2\right:global	!	!	!	!	!
1.ryy	.	2A\	Be-	1c	Be-	2f/	Be-
.	.	4G/	.	.	.	4b-\	.
.	.	4F/	.	.	.	4a\	.
*	*	*	*	*2\right	*	*	*
*	*	*	*	*all\right	*	*	*
!	!	!	!	!LO:TX:t=P:problem:2\right:global	!	!	!
.	.	4E/	-ne-	2c\	-ne-	4g\	.
.	.	4F/	.	.	.	4f\	-ne-
=2	=2	=2	=2	=2	=2	=2	=2
*	*	*	*	*	*	*2\right	*
!	!	!	!	!	!	!LO:TX:t=P:problem:2\right:global	!
1.ryy	.	2c\	-dic-	2e\	-dic-	2g\	-dic-
.	.	2c\	-tus	2f\	-tus	2a\	-tus
.	.	2c\	qui	2g\	qui	2b-\	qui
=3	=3	=3	=3	=3	=3	=3	=3
1.ryy	.	2E/	ve-	2g\	ve-	2b-\	ve-
.	.	2F/	-nit	2f\	-nit	2a\	-nit
.	.	2G/	in	2f\	qui	2cc\	qui
=4	=4	=4	=4	=4	=4	=4	=4
1.ryy	.	4d\	no-	1f	ve-	4ff\	Ve-
.	.	4c\	.	.	.	4ee\	.
.	.	4B-\	-mi-	.	.	4dd\	.
.	.	4A\	-ne	.	.	4cc\	.
.	.	4G/	Do-	4e\	.	4b-\	.
.	.	4F/	-mi-	4f\	-nit	4a\	.
!	!	!LO:LB:g=original	!	!	!	!	!
=5	=5	=5	=5	=5	=5	=5	=5
1.ryy	.	[2c\	-ni.	2f\	ve-	2a\	.
.	.	2c\]	.	2e\	-nit	2g\	-nit,
.	.	2r	.	2r	.	2r	.
!	!	!	!	!LO:LB:g=original	!	!LO:LB:g=original	!
=6	=6	=6	=6	=6	=6	=6	=6
1.ryy	.	2c\	Be-	1g	Be-	1ee	Be-
.	.	2E/	.	.	.	.	.
.	.	2G/	-ne-	4e\	.	4cc\	-ne-
.	.	.	.	4g\	-ne-	4ee\	.
=7	=7	=7	=7	=7	=7	=7	=7
1.ryy	.	2c\	-di-	4g\	-di-	4ee\	-di-
.	.	.	.	4f\	.	4dd\	.
.	.	2G/	.	4d\	.	4bn\	.
.	.	.	.	4f\	.	4dd\	.
.	.	2G/	-ctus	2e\	-ctus	2cc\	-ctus
=8	=8	=8	=8	=8	=8	=8	=8
1.ryy	.	1G	qui	1e	qui	1.cc	qui
.	.	4E/	.	4c\	.	.	.
.	.	4G/	.	4e\	.	.	.
=9	=9	=9	=9	=9	=9	=9	=9
1.ryy	.	4G/	ve-	4e\	ve-	2cc\	ve-
.	.	4F/	.	4d\	.	.	.
.	.	4D/	.	4Bn\	.	2g\	.
.	.	4F/	.	4d\	.	.	.
.	.	4E/	-nit	4c\	-nit	4g\	-nit
.	.	4G/	in	4e\	in	4cc\	in
=10	=10	=10	=10	=10	=10	=10	=10
1.ryy	.	2.c\	no-	2.g\	no-	2.ee\	no-
.	.	4Bn\	-mi-	4f\	-mi-	4dd\	-mi-
.	.	2G/	-ne	2e\	-ne	2cc\	-ne
=11	=11	=11	=11	=11	=11	=11	=11
1.ryy	.	2A\	Do-	4f\	Do-	4dd\	Do-
.	.	.	.	8g\L	.	8ee\L	.
.	.	.	.	8f\J	.	8dd\J	.
!	!	!LO:LB:g=original	!	!	!	!	!
.	.	2G/	.	2e\	.	2cc\	.
.	.	2G/	-mi-	2d\	-mi-	2bn\	-mi-
!	!	!	!	!LO:LB:g=original	!	!	!
=12	=12	=12	=12	=12	=12	=12	=12
1.ryy	.	1G	-ni,	1e	-ni,	1cc	-ni,
.	.	2r	.	2r	.	2r	.
!	!	!	!	!	!	!LO:LB:g=original	!
=13	=13	=13	=13	=13	=13	=13	=13
1.ryy	.	1A	Be-	1f	Be-	1cc	Be-
.	.	2F/	-ne-	4c\	-ne-	4a\	-ne-
.	.	.	.	4e-X\	.	4cc\	.
=14	=14	=14	=14	=14	=14	=14	=14
1.ryy	.	1F	-dic-	2d\	-dic-	2b-\	-dic-
.	.	.	.	2c\	.	2a\	.
.	.	2F/	-tus	2d\	-tus	2b-\	-tus
=15	=15	=15	=15	=15	=15	=15	=15
1.ryy	.	[y1B-	qui	4b-\	be-	4dd\	qui
.	.	.	.	4a\	.	4cc\	.
.	.	.	.	4g\	.	4b-\	.
.	.	.	.	4f\	.	4a\	.
!	!	!LO:N:xstem:cue	!	!	!	!	!
.	.	4B-\]	.	4g\	.	4b-\	.
.	.	4Bn\	.	4f\	-ne-	4a\	.
=16	=16	=16	=16	=16	=16	=16	=16
1.ryy	.	2c\	ve-	2f\	-dic-	2a\	ve-
.	.	2c\	-nit	2e\	-tus	2g\	-nit
.	.	2c\	in	2g\	in	2b-\	in
=17	=17	=17	=17	=17	=17	=17	=17
1.ryy	.	2.c\	no-	2.f\	no-	2.a\	no-
.	.	4B-\	-mi-	4g\	-mi-	4b-\	-mi-
.	.	2A\	-ne	2a\	-ne	2cc\	-ne
!	!	!LO:LB:g=original	!	!	!	!	!
=18	=18	=18	=18	=18	=18	=18	=18
1.ryy	.	2B-\	Do-	8a\L	Do-	8cc\L	Do-
.	.	.	.	8g\	.	8b-\	.
.	.	.	.	8b-\	.	8dd\	.
.	.	.	.	8g\J	.	8b-\J	.
.	.	2c\	.	2f\	.	2a\	.
.	.	2c\	-mi-	2e\	-mi-	2g\	-mi-
!	!	!	!	!LO:LB:g=original	!	!	!
=19	=19	=19	=19	=19	=19	=19	=19
!	!	!	!	!	!	!LO:TX:t=P:problem:wpisana kauda i przekreślona	!
1.ryy	.	1c	-ni	1f	-ni	1a	-ni,
.	.	2c\	in	2g\	in	2b-\	in
!	!	!	!	!	!	!LO:LB:g=original	!
=20	=20	=20	=20	=20	=20	=20	=20
1.ryy	.	2.c\	no-	2.f\	no-	2.a\	no-
.	.	4B-\	-mi-	4g\	-mi-	4b-\	-mi-
.	.	2A\	-ne	2a\	-ne	2cc\	-ne
=21	=21	=21	=21	=21	=21	=21	=21
1.ryy	.	2B-\	Do-	8a\L	Do-	8cc\L	Do-
.	.	.	.	8g\	.	8b-\	.
.	.	.	.	8b-\	.	8dd\	.
.	.	.	.	8g\J	.	8b-\J	.
.	.	2c\	.	2f\	.	2a\	.
.	.	2c\	-mi-	2e\	-mi-	2g\	-mi-
=22	=22	=22	=22	=22	=22	=22	=22
!	!	!LO:TX:a:t=Osanna Da Capo.	!	!	!	!	!
!LO:TX:a:t=Osanna Da Capo.	!	!LO:TX:t=P:problem:LO:N:vis=1	!	!	!	!	!
1.ryy	.	1.F	-ni.	1f	-ni.	1.a	-ni,
!	!	!	!	!LO:TX:a:t=Osanna Da Capo.	!	!	!
.	.	.	.	2r	.	.	.
!	!	!LO:PB:g=original	!	!LO:PB:g=original	!	!	!
=23||	=23||	=23||	=23||	=23||	=23||	=23||	=23||
*M3/2	*	*M3/2	*	*M3/2	*	*M3/2	*
*2\right	*	*	*	*	*	*	*
!LO:TX:t=P:problem:partia w Sanctus, do ukrycia?	!	!LO:TX:t=P:problem:partia w Sanctus, do ukrycia?	!	!LO:TX:t=P:problem:partia w Sanctus, do ukrycia?	!	!	!
2D\	O-	2A\	O-	2f\	o-	2dd\	O-
2F\	-san-	2A\	-san-	2a\	-san-	2dd\	-san-
2A\	-na	2c#X\	-na	2g\	-na	2ee\	-na
=24	=24	=24	=24	=24	=24	=24	=24
2F\	in	1A	in	1f	in	1dd	in
*all\right	*	*	*	*	*	*	*
4D\	.	.	.	.	.	.	.
4E\	.	.	.	.	.	.	.
4F\	.	2A\	ex-	2f\	ex-	2dd\	ex-
4G\	ex-	.	.	.	.	.	.
=25	=25	=25	=25	=25	=25	=25	=25
2A\	-cel-	2A\	-cel-	1f	-cel-	2dd\	-cel-
2AA/	-sis,	2A\	-sis	.	.	2cc#X\	-sis
2r	.	2r	.	2e\	-sis	2r	.
!	!	!LO:LB:g=original	!	!	!	!	!
=26	=26	=26	=26	=26	=26	=26	=26
2AA/	O-	2A\	o-	2e\	O-	2cc#X\	O-
2C#X/	-san-	2A\	-san-	2e\	-san-	2cc#\	-san-
2E\	-na	2A\	-na	2e\	-na	2cc#\	-na
!	!	!	!	!LO:LB:g=original	!	!	!
=27	=27	=27	=27	=27	=27	=27	=27
1A	in	1c#X	in	1e	in	1cc#X	in
2A\	ex-	2c#\	ex-	2g\	ex-	2ee\	ex-
!	!	!	!	!	!	!LO:LB:g=original	!
=28	=28	=28	=28	=28	=28	=28	=28
2d\	-cel-	2A\	-cel-	2g\	-cel-	2ee\	-cel-
2D\	-sis.	2A\	-sis	2f\	-sis	2dd\	-sis
2r	.	2r	.	2r	.	2r	.
!LO:LB:g=original	!	!	!	!	!	!	!
=29	=29	=29	=29	=29	=29	=29	=29
!	!	!LO:TX:a:t=1.	!	!	!	!	!
1.A	O-	1.r	.	4e\	o-	4cc#X\	O-
.	.	.	.	4d\	.	4bn\	.
.	.	.	.	4c#X\	.	4a\	.
.	.	.	.	4d\	.	4b\	.
.	.	.	.	4e\	.	4cc#\	.
.	.	.	.	4f\	.	4dd\	.
=30	=30	=30	=30	=30	=30	=30	=30
1A	-san-	2c#X\	O-	1g	-san-	1ee	-san-
.	.	2c#\	-san-	.	.	.	.
2A\	-na	2c#\	-na	2g\	-na	2ee\	-na
=31	=31	=31	=31	=31	=31	=31	=31
2D\	in	1A	in	2a\	in	2ff\	in
2E\	.	.	.	2g\	.	2ee\	.
2F\	ex-	2A\	ex-	2f\	ex-	2dd\	ex-
=32	=32	=32	=32	=32	=32	=32	=32
2G\	-cel-	2B-X\	-cel-	2g\	-cel-	2ee\	-cel-
2A\	.	1A	.	2f\	.	2dd\	.
2AA/	.	.	.	2e\	.	2cc#X\	.
=33	=33	=33	=33	=33	=33	=33	=33
1D	-sis.	1.A	-sis.	1.f	-sis.	1.dd	-sis.
2r	.	.	.	.	.	.	.
==	==	==	==	==	==	==	==
*-	*-	*-	*-	*-	*-	*-	*-
!!!system-decoration: [(s1,s2,s3,s4)]
!!!ENC: Filip Voros
!!!END: 2023-11-09
!!!ENC: Leszek Kubiak
!!!END: 2023-12-12
